X:1
T:Mary Morison
M:4/4
L:1/8
K:D
 z4 z2 z z/2 D/2| D3/2 F/2 A3/2 B/2 A3/2 F/2 A3/2 B/2| D3/2 F/2 d3/2 B/2 A3/2 F/2 E3/2 F/2|\
 D3/2 F/2 A3/2 B/2 A3/2 F/2 A3/2 g/2| f3/2 d/2 ef dd d3/2 g/2| f3/2 e/2d/2-e/2f/2-g/2 af ed|\
 cA eA c3/2 d/2 eg| f3/2 e/2d/2-e/2f/2-g/2 af ed| B3/2 g/2 f3/2 e/2 dd d3/2 z/2|\
